icons/lines/message-programming.svg

<svg xmlns="http://www.w3.org/2000/svg" width="24" height="24" viewBox="0 0 24 24" fill="none" stroke="currentColor" stroke-width="2" stroke-linecap="round" stroke-linejoin="round" >
  <path d="M8.5 18.97H8C4 18.97 2 17.97 2 12.97V7.96997C2 3.96997 4 1.96997 8 1.96997H16C20 1.96997 22 3.96997 22 7.96997V12.97C22 16.97 20 18.97 16 18.97H15.5C15.19 18.97 14.89 19.12 14.7 19.37L13.2 21.37C12.54 22.25 11.46 22.25 10.8 21.37L9.29999 19.37C9.13999 19.15 8.78 18.97 8.5 18.97Z" stroke-miterlimit="10"/>
  <path d="M8 8.70001L6 10.7L8 12.7" stroke-miterlimit="10"/>
  <path d="M16 8.70001L18 10.7L16 12.7" stroke-miterlimit="10"/>
  <path d="M13 8.37L11 13.03" stroke-miterlimit="10"/>
  </svg>

<svg xmlns="http://www.w3.org/2000/svg" width="24" height="24" viewBox="0 0 24 24" fill="none" stroke="currentColor" stroke-width="2" stroke-linecap="round" stroke-linejoin="round">
  <path d="m13 8.37-2 4.66" />
  <path d="m16 8.7 2 2-2 2" />
  <path d="M8 18.97c-4 0-6-1-6-6v-5q0-6 6-6h8q6 0 6 6v5q0 6-6 6h-.5a1 1 0 0 0-.8.4l-1.5 2c-.66.88-1.74.88-2.4 0l-1.5-2a1.1 1.1 0 0 0-.8-.4z" />
  <path d="m8 8.7-2 2 2 2" />
</svg>
